public/open.svg

<svg xmlns="http://www.w3.org/2000/svg" viewBox="0 0 90 90" enable-background="new 0 0 90 90"><style type="text/css">.st0{fill:#00BBF0;}</style><path class="st0" d="M66 31.2h-42c-.6 0-1 .5-1 1 0 .6.5 1 1 1h42c.6 0 1-.5 1-1s-.5-1-1-1zM66 44h-42c-.6 0-1 .5-1 1s.5 1 1 1h42c.6 0 1-.5 1-1s-.5-1-1-1zM66 56.7h-42c-.6 0-1 .5-1 1 0 .6.5 1 1 1h42c.6 0 1-.5 1-1s-.5-1-1-1zM45 0c-24.8 0-45 20.2-45 45s20.2 45 45 45 45-20.2 45-45-20.2-45-45-45zm0 87.9c-23.7 0-42.9-19.2-42.9-42.9s19.2-42.9 42.9-42.9 42.9 19.3 42.9 42.9-19.2 42.9-42.9 42.9z"/></svg>

<svg xmlns="http://www.w3.org/2000/svg" viewBox="0 0 90 90"><path d="M66 31.2H24c-.6 0-1 .5-1 1 0 .6.5 1 1 1h42c.6 0 1-.5 1-1s-.5-1-1-1zM66 44H24c-.6 0-1 .5-1 1s.5 1 1 1h42c.6 0 1-.5 1-1s-.5-1-1-1zm0 12.7H24c-.6 0-1 .5-1 1 0 .6.5 1 1 1h42c.6 0 1-.5 1-1s-.5-1-1-1zM45 0C20.2 0 0 20.2 0 45s20.2 45 45 45 45-20.2 45-45S69.8 0 45 0zm0 87.9C21.3 87.9 2.1 68.7 2.1 45S21.3 2.1 45 2.1 87.9 21.4 87.9 45 68.7 87.9 45 87.9z" fill="#00bbf0"/></svg>
